X:1
T:A quel strano apparire
T:Lodovico Agostini
T:A quel strano apparire
T:Canzone Quinta parte
C:Lodovico Agostini
%%score [ 1 2 3 4 ]
L:1/8
Q:1/4=84
M:4/4
K:C
V:1 treble nm="Soprano" snm="S"
V:2 alto1 nm="Alto" snm="A"
V:3 alto nm="Tenor" snm="T"
V:4 bass3 nm="Bass" snm="B"
V:1
 z8 |[K:Bb] B6 F2 | d4 B2 c2 | d4 d2 cB | AGAB c4 | c2 d2 GABG | AB c4 A2 | B3 B B2 B2- | %8
w: |A quel|stra- no ap- pa-|ri- re, Ri- *||se la ter- * * *|* * * ra,|Ri- se la ter-|
 BA AG/F/ G4 | G2 =B2 c3 c | d2 c2 c4 | =B4 z2 G2 | _A4 =A4 | =B2 c2 d4 | c4 z2 e2 | d3 d d2 c2 | %16
w: |ra e'l ciel si|fe lu- cen-|te, Fugg'|il duol|e'l mar- ti-|re, E|ral- le- gros- si o-|
 c3 c B2 B2 | A4 B4 | z2 d4 d2 | c4 c2 d2 | e4 d4 | z2 c2 c2 c2 | e3 e d2 c2 | =B4 z2 c2 | %24
w: gni af- fa- na- ta-|men- te,|Fiam- ma|dol- ce et ar-|den- te,|Fiam- ma'l cui|fo- co va- le,|Si ch'al|
 B2 A4 G2 | c4 c2 c2 | d3 d e2 c2 | =B4 c2 A2 | G2 B2 B3 B | B2 B2 A2 B2 | B2 A2 B4 | z2 B4 B2 | %32
w: piu cru- do|ver- no, Puo|quel che nel su-|per- no, Splen-|dor ne'n- sie- me|puo d'A- mor lo|stra- * le,|Ch'e gli|
 c4 =B2 c2 | c2 e2 d4 | c4 z2 d2- | d2 c2 z2 G2 | ^F4 G4 | z2 =B2 c2 f2 | f3 c f4 | d8 |] %40
w: so- lo re-|stau- ra, L'a-|ria, l'a-|* qua, la|ter- ra,|il ciel e|l'au- * *|ra.|
V:2
 z8 |[K:Bb][K:treble] z8 | z4 F4- | F2 B,2 G4 | F3 G A4 | A2 F3 E ED/E/ | F6 F2 | %7
w: ||A|_ quel stra-|no ap- pa- ri-|re, Ri- * * * *|* se|
 G2 F3 E/D/ ED/E/ | F4 =E4 | z2 G2 G3 F | F2 _A2 G4 | G4 z2 =E2 | F4 ^F4 | G3 A B4 | A4 z2 B2 | %15
w: la ter- * * * * *|* ra|e'l ciel si|fe lu- cen-|te, Fugg'|il duol|e'l _ ti-|re, E|
 B3 B B2 G2 | _A3 G F2 G2 | F4 D4 | z2 B4 B2 | G4 A2 D2 | B4 B4 | z2 G2 G2 A2 | B3 B B2 G2 | %23
w: ral- le- gros- si o-|gni af- fa- na- ta-|men- te,|Fiam- ma|dol- ce et ar-|den- te,|Fiam- ma'l cui|fo- co va- le,|
 G4 z2 G2 | G2 F4 E2 | A4 G2 A2 | B3 B B2 A2 | G4 G2 F2 | =E2 F2 G3 G | G2 G2 F2 D2 | F4 F4 | %31
w: Si ch'al|piu cru- do|ver- no, Puo|quel che nel su-|per- no, Splen-|dor ne'n- sie- me|puo d'A- mor lo|stra- le,|
 z2 F4 G2 | _A4 G2 G2 | A2 B2 B4 | G4 z2 B2- | B2 A2 z2 D2 | D4 =B,4 | z2 G2 G2 B2 | B2 AG A4 | %39
w: Ch'e gli|so- lo re-|stau- ra, L'a-|ria, l'a-|* qua, la|ter- ra,|il ciel e|l'au- * * *|
 B8 |] %40
w: ra.|
V:3
 z8 |[K:Bb][K:treble-8] z8 | B6 F2 | d4 B2 c2 | d4 c4 | fedc B4 | c2 A2 c4 | d2 d3 d B2 | c4 c4 | %9
w: ||A quel|stra- no ap- pa-|ri- re,|Ri- * * * *|se la ter-|ra, Ri- se la|ter- ra|
 z2 d2 e3 c | d2 f2 e4 | d4 z2 c2 | c4 d4 | d2 =e2 f4 | f4 z2 g2 | f3 f f2 e2 | e3 e d2 e2 | %17
w: e'l ciel si|fe lu- cen-|te, Fugg'|il duol|e'l mar- ti-|re, E|ral- le- gros- si o-|gni af- fa- na- ta-|
 c4 B4 | z2 f4 f2 | =e4 f2 f2 | g4 f4 | z2 =e2 e2 f2 | g3 g f2 e2 | d4 z2 e2 | e2 c4 B2 | %25
w: men- te,|Fiam- ma|dol- ce et ar-|den- te,|Fiam- ma'l cui|fo- co va- le,|Si ch'al|piu cru- do|
 f4 =e2 f2 | f3 f g2 f2 | d4 c2 c2 | c2 d2 e3 e | e2 e2 c2 B2 | c4 B4 | z2 d4 d2 | f4 d2 =e2 | %33
w: ver- no, Puo|quel che nel su-|per- no, Splen-|dor ne'n- sie- me|puo d'A- mor lo|stra- le,|Ch'e gli|so- lo re-|
 f2 g2 f4 | =e4 z2 f2- | f2 f2 z2 B2 | A4 G4 | z2 d2 e2 d2 | c8 | B8 |] %40
w: stau- ra, L'a-|ria, l'a-|* qua, la|ter- ra,|il ciel e|l'au-|ra.|
V:4
 z8 |[K:Bb][K:bass] z8 | z8 | z8 | z4 F,4- | F,2 B,,2 G,4 | F,3 G, A,4 | G,2 B,3 B, G,2 | F,4 C,4 | %9
w: ||||A|_ quel stra-|no ap- pa- ri-|re, Ri- se la|ter- ra|
 G,4 C3 A, | B,2 F,2 C4 | G,4 z2 C,2 | F,4 D,4 | G,2 C,2 B,4 | F,4 z2 E,2 | B,3 B, B,2 C2 | %16
w: e'l ciel si|fe lu- cen-|te, Fugg'|il duol|e'l mar- ti-|re, E|ral- le- gros- si o-|
 _A,3 A, B,2 E,2 | F,4 B,,4 | z2 B,4 B,2 | C4 A,2 B,2 | E,4 B,4 | z2 C2 C2 F,2 | E,3 E, B,,2 C,2 | %23
w: gni af- fa- na- ta-|men- te,|Fiam- ma|dol- ce et ar-|den- te,|Fiam- ma'l cui|fo- co va- le,|
 G,4 z2 C,2 | E,2 F,4 G,2 | F,4 C,2 F,2 | B,,3 B,, E,2 F,2 | G,4 =E,2 F,2 | C,2 B,,2 E,3 E, | %29
w: Si ch'al|piu cru- do|ver- no, Puo|quel che nel su-|per- no, Splen-|dor ne'n- sie- me|
 E,2 E,2 F,2 G,2 | F,4 B,,4 | z2 B,4 B,2 | F,4 G,2 C,2 | F,2 E,2 B,4 | C4 z2 B,2- | %35
w: puo d'A- mor lo|stra- le,|Ch'e gli|so- lo re-|stau- ra, L'a-|ria, l'a-|
 B,2 F,2 z2 G,2 | D,4 G,,4 | z2 G,2 C2 B,2 | F,8 | B,,8 |] %40
w: * qua, la|ter- ra,|il ciel e|l'au-|ra.|

